!!!COM: Anon.
!!!OTL: O que tens, o/ Juliana
!!!OTL: Romanceiro Folclorico do Brasil
!!!CNT: Brasil
!!!OCY: Brasil
!!!ODT: <1971///
!!!PSR: Irmaos Vitale
!!!PSP: Sao Paulo, Brasil
!!!PDT: 1948///
!!!PPE: Rossini Tavares de Lima
!!!PPG: pages 16-17
!! Romance: Juliana E D. Jorge
!! Place: Muzambinho, Minas Gerais, Brasil
**kern
*clefG2
*k[b-e-a-]
*M3/4
*MM100
8g
8ee-
=
4cc
4g
8f
8e-
=
4e-
4d
8g
8dd
=
4bn
4g
8b
8dd
=
4cc
4r
8g
8g
=
4ff
4dd
8bn
8g
=
4ee-
4cc
8g
8a-
=
4g
4f
8e-
8d
=
2c
==
*-
